brandFactory_export/1.Light/Fireware_1Light.svg

<?xml version="1.0" encoding="UTF-8"?>
<svg width="24px" height="24px" viewBox="0 0 24 24" version="1.1" xmlns="http://www.w3.org/2000/svg" xmlns:xlink="http://www.w3.org/1999/xlink">
    <title>1.Light/Fireware_1Light</title>
    <g id="Symbols" stroke="none" stroke-width="1" fill="none" fill-rule="evenodd">
        <g id="1.Light/Fireware_1Light" fill="#5CB615" fill-rule="nonzero">
            <path d="M22.2084034,22.302521 L18.0268908,22.302521 L18.0268908,15.8487395 L22.6622153,15.8722689 L22.6622153,21.610084 C22.6655462,21.989916 22.389916,22.302521 22.2084034,22.302521 L22.2084034,22.302521 Z M10.5478992,21.9966387 C11.4722689,21.1596639 12.0201681,19.9831933 12.0672269,18.7361345 C12.107563,17.6773109 11.7647059,16.6655462 11.1361345,15.8151261 L17.0352941,15.8420168 L17.0352941,22.2991597 L10.1781513,22.2991597 C10.2991597,22.205042 10.4235294,22.1109244 10.5478992,21.9966387 Z M6.07058824,22.6084034 C5.87563025,22.6151261 5.67731092,22.6016807 5.4789916,22.5546218 C5.47563025,22.5546218 4.99831933,22.4705882 4.57142857,22.0470588 C3.98655462,21.4621849 3.95630252,20.5243697 4.50084034,19.902521 L4.50420168,19.902521 C4.61848739,19.7680672 4.74957983,19.6504202 4.88739496,19.5428571 C5.63697479,18.9781513 6.06722689,18.0806723 6.03361345,17.1394958 C6.28907563,17.2806723 6.54117647,17.4554622 6.77310924,17.6571429 C7.71764706,18.487395 8.55798319,20.5579832 7.66386555,21.7815126 C7.30420168,22.2722689 6.74285714,22.5680672 6.13109244,22.6084034 C6.10756303,22.605042 6.0907563,22.6084034 6.07058824,22.6084034 L6.07058824,22.6084034 Z M2.00336134,20.6319328 C-0.211764706,17.805042 1.75798319,13.2235294 4.08739496,11.3109244 C4.92773109,10.6218487 5.87563025,10.0773109 6.89747899,9.70420168 C6.64537815,11.005042 6.62184874,13.4016807 9.12268908,15.2302521 C9.46890756,15.4756303 9.78487395,15.7512605 10.0638655,16.0537815 C10.7394958,16.7663866 11.102521,17.7176471 11.0689076,18.6991597 C11.0319328,19.6773109 10.6016807,20.5983193 9.87563025,21.2571429 C9.49915966,21.6033613 9.06890756,21.8890756 8.60504202,22.107563 C9.59327731,20.3932773 8.64201681,17.9764706 7.42521008,16.9042017 C6.85378151,16.4033613 6.16806723,16.0302521 5.50252101,15.8621849 C5.23361345,15.7983193 4.96470588,15.9630252 4.89747899,16.2319328 C4.87394958,16.3327731 4.88067227,16.4403361 4.9210084,16.5378151 C4.92436975,16.5512605 5.43865546,17.8453782 4.2789916,18.7529412 C4.08739496,18.9008403 3.91260504,19.0655462 3.75462185,19.2436975 C3.15630252,19.9327731 2.96806723,20.887395 3.2605042,21.7512605 C2.77983193,21.4521008 2.35630252,21.0722689 2.00336134,20.6319328 L2.00336134,20.6319328 Z M3.82184874,1.00168067 L7.70084034,1.00168067 L7.70084034,7.39831933 L3.36806723,7.38823529 L3.36806723,1.69411765 C3.36806723,1.31428571 3.67058824,1.00168067 3.82184874,1.00168067 L3.82184874,1.00168067 Z M22.6621849,1.69411765 L22.6621849,7.43529412 L18.0268908,7.42521008 L18.0268908,1.00501544 L22.205042,1.00501544 C22.3596639,1.00168067 22.6621849,1.31764706 22.6621849,1.69411765 Z M8.69579832,7.40168067 L8.69579832,1.00168067 L17.0319328,1.00504202 L17.0319328,7.42184874 L8.69579832,7.40168067 Z M10.3798319,14.810084 C10.3260504,14.810084 10.2789916,14.8235294 10.2352941,14.8369748 C10.0638655,14.6890756 9.88571429,14.5478992 9.70084034,14.4168067 C6.77310924,12.2789916 8.02016807,9.29747899 8.07394958,9.17310924 C8.1512605,8.99831933 8.1210084,8.79663866 8,8.65210084 C7.8789916,8.50420168 7.68739496,8.44033613 7.50252101,8.48403361 C6.10420168,8.81680672 4.66890756,9.54621849 3.45546218,10.5378151 C3.42521008,10.5647059 3.39495798,10.594958 3.36470588,10.6218487 L3.36470588,8.39327731 L12.312605,8.41344538 L12.312605,14.8201681 L10.3798319,14.810084 Z M13.3109244,14.8235294 L13.3109244,8.41344538 L22.6621849,8.43697479 L22.6621849,14.8705882 L13.3109244,14.8235294 Z M22.2084034,0.00336134454 L3.82521008,0 C3.06554622,0 2.37310924,0.806722689 2.37310924,1.69411765 L2.37310924,11.6268908 C0.248739496,14.1579832 -1.03865546,18.3697479 1.22352941,21.2504202 C2.32268908,22.6521008 4.05714286,23.4890756 5.8487395,23.6 C5.89579832,23.6033613 5.94285714,23.6168067 5.98991597,23.6168067 C6.00672269,23.6168067 6.02352941,23.6134454 6.04369748,23.6134454 C6.11092437,23.6134454 6.17478992,23.6235294 6.24201681,23.6235294 C6.7092437,23.6235294 7.17647059,23.5731092 7.63697479,23.4655462 C7.92268908,23.4151261 8.20168067,23.3378151 8.47058824,23.2403361 C8.53781513,23.2806723 8.61512605,23.3008403 8.69243697,23.3008403 L22.205042,23.3008403 C22.9781513,23.3008403 23.6537937,22.5109244 23.6537937,21.6067227 L23.6537937,1.69411765 C23.6571429,0.806722689 22.9647059,0.00336134454 22.2084034,0.00336134454 Z" id="Fireware_1Light"></path>
        </g>
    </g>
</svg>

<svg width="24" height="24" viewBox="0 0 24 24" xmlns="http://www.w3.org/2000/svg"><path d="M22.208 22.303h-4.181v-6.454l4.635.023v5.738c.004.38-.272.693-.454.693zm-11.66-.306a4.635 4.635 0 001.52-3.26c.04-1.06-.303-2.071-.932-2.922l5.9.027v6.457h-6.858c.121-.094.246-.188.37-.302zm-4.477.611a2.218 2.218 0 01-.592-.053c-.003 0-.48-.084-.908-.508a1.57 1.57 0 01-.07-2.144h.003c.114-.135.246-.253.383-.36a2.883 2.883 0 001.147-2.404c.255.142.507.316.74.518.944.83 1.784 2.901.89 4.125-.36.49-.921.786-1.533.826-.023-.003-.04 0-.06 0zm-4.068-1.976c-2.215-2.827-.245-7.408 2.084-9.321a9.653 9.653 0 012.81-1.607c-.252 1.301-.275 3.698 2.226 5.526.346.246.662.521.94.824a3.661 3.661 0 011.006 2.645 3.64 3.64 0 01-1.193 2.558 5.064 5.064 0 01-1.271.85c.988-1.714.037-4.13-1.18-5.203-.571-.5-1.257-.874-1.922-1.042a.504.504 0 00-.606.37.503.503 0 00.024.306c.003.013.518 1.307-.642 2.215a3.824 3.824 0 00-.524.49 2.569 2.569 0 00-.494 2.508c-.481-.299-.905-.679-1.258-1.12zm1.819-19.63H7.7v6.396l-4.333-.01V1.694c0-.38.303-.692.454-.692zm18.84.692v5.741l-4.635-.01v-6.42h4.178c.155-.003.457.313.457.69zM8.696 7.402v-6.4l8.336.003v6.417l-8.336-.02zm1.684 7.408a.48.48 0 00-.145.027 7.162 7.162 0 00-.534-.42c-2.928-2.138-1.68-5.12-1.627-5.244A.498.498 0 008 8.653a.493.493 0 00-.497-.169c-1.399.333-2.834 1.062-4.048 2.054l-.09.084V8.393l8.948.02v6.407l-1.933-.01zm2.93.014v-6.41l9.352.023v6.434l-9.351-.047zM22.209.004L3.825 0c-.76 0-1.452.807-1.452 1.694v9.933C.25 14.158-1.039 18.37 1.223 21.25c1.1 1.402 2.834 2.24 4.626 2.35.047.003.094.017.14.017.018 0 .035-.004.055-.004.067 0 .13.01.198.01.467 0 .934-.05 1.395-.157.286-.05.565-.128.834-.226.067.04.144.06.221.06h13.513c.773 0 1.449-.79 1.449-1.693V1.694c.003-.887-.69-1.69-1.446-1.69z" fill="#5CB615" fill-rule="nonzero"/></svg>
